!!!OTL: Der Nachtjaeger
!!!OTL-incipit:Es blies ein Jaeger wohl in sein Horn, wohl in sein Horn,
!!!ARE: Europa, Mitteleuropa, Deutschland (), Pommern, Stralsund
!!!YOR: 6, S. 164
!!    1930 aufgezeichnet
!!!SCT: Q0133B
!!!TXL: @@DE
!!!YEM: Copyright 1995, estate of Helmut Schaffrath.
**kern	**text
*ICvox	*
*M4/4	*
*met(c)	*
*k[f#]	*
*G:	*
{4d	1._Es
=1	=1
(8gL	blies
8f#J)	.
(8gL	ein
8aJ)	.
(8bL	Jä-
8aJ)	.
8bL	-ger
8ccJ	wohl
=2	=2
4dd	in
(8ccL	sein
8bJ)	.
4a	Horn,
8r	.
8b	wohl
=3	=3
4dd	in
(8ccL	sein
8bJ)	.
4f#	Horn,
8r}	.
{8a	und
=4	=4
8aL	al-
8bJ	-les,
8aL	was
8gJ	er
(8f#L	blies,
8eJ)	.
(8f#L	das
8gJ)	.
=5	=5
(8aL	war
8gJ)	.
(8f#L	ver-
8eJ)	.
4d	-lorn.
4r}	.
=6	=6
{4dd	Hus-
4b	-sa-
4.b	-sa-
8b	-ti
=7	=7
4cc	ral-
4a	-la-
4.a}	-la,
{8a	und
=8	=8
8gL	al-
8aJ	-les,
8bL	was
8ccJ	er
4dd	blies,
(8gL	das
8aJ)	.
=9	=9
4b	war
4a	ver-
4g}	-lorn.
==	==
!!!AGN: Ballade, Jagd, Flucht, Vergewaltigung, Tod
!! Anhaengsel an der ersten Zeile.  Dritte Zeile =  Refrain auf
!!    sinnfreie Silben.
!!!ONB: ESAC (Essen Associative Code) Database: BALLADE
!!!AMT: simple quadruple
!!!AIN: vox
!!!EED: Helmut Schaffrath
!!!EEV: 1.0
!!@@COMMENT:"Vballaden Pomm. S. 5. Nr. 6."
!!@@END:
!!!source: Deutsche Volkslieder mit ihren Melodien Balladen. Herausgegeben vom Deutschen Volksliedarchiv. Sechster Band. Freiburg/Breisgau 1976.
!!!page: 164
!!!ENC: Anna Maria Matuszewska
!!!EEV: 2025/03/06
*-	*-
